X:4
T:Cleveland Park
R:jig
M:6/8
L:1/8
K:Dmin
A,DE FED | B,DE FED | =B,DE FED  | G2E  FED  |
A,DE FED | B,DE FED | G2E   C2C  | GFE  D3  :|
DFA  dAF | GAB  AFD | B,DF  A,DF | B,DF EDC  |
DFA  dAF | GAB  AFD | B,DF  A,DF | EDC  D3   |
DFA  dAF | GAB  AFD | B,DF  A,DF | B,DF EDC  |
A,DE FED | B,DE FED | G2E   C2C  | GFE  D3   |

